papirus/22x22/apps/google-play-music-desktop-player.svg

<svg height="22" viewBox="0 0 44 44" width="22" xmlns="http://www.w3.org/2000/svg"><g transform="translate(-2.0000001 -1.9998638)"><path d="m40.358455 21.751952l-30.4141865-17.2341501c-1.2995566-.727563-2.4623179-.659354-3.1690943.0227364l0 0c-.5015834.4774633-.7751742 1.250499-.7751742 2.2508983v34.4000924c0 1.000399.2963902 1.773436.7751742 2.250898l0 0c .7295756.704828 1.8695377.773037 3.1690943.02274l30.4141865-17.234154c2.188727-1.227763 2.188727-3.228562 0-4.479061z" fill="#eb4d27"/><path d="m8.1367188 4c-.541482.0113682-1.00794.1999704-1.3613282.5410156-.5015834.4774633-.7753906 1.2496007-.7753906 2.25v1c0-1.0003993.2738072-1.7725367.7753906-2.25.7067764-.6820904 1.8684122-.7510005 3.1679688-.0234375l30.4160156 17.2343749c.868444.496174 1.385172 1.110785 1.564453 1.748047.273324-.966335-.243628-1.993412-1.564453-2.748047l-30.4160156-17.2343749c-.6497783-.3637815-1.2651587-.5289463-1.8066406-.5175781z" fill="#fff" opacity=".2"/><path d="m24 10.741974c-3.550797 0-6.783275 1.332409-9.251302 3.510938a14 14 0 0 0 -.0055.0055c-.338297.298946-.661822.612495-.969791.942449a14 14 0 0 0 -.07292.08203c-.281221.306043-.548697.623172-.802083.953386a14 14 0 0 0 -.11849.158594c-.234359.314496-.455759.637549-.663542.971614a14 14 0 0 0 -.120312.198698c-.195706.326611-.377752.661244-.546876 1.004428a14 14 0 0 0 -.116666.240624c-.156739.334065-.299725.674813-.430208 1.022656a14 14 0 0 0 -.100261.273438c-.117664.334873-.221168.674861-.313541 1.020833a14 14 0 0 0 -.09297.359115c-.07319.306787-.135136.617257-.187761.931511a14 14 0 0 0 -.07838.515885c-.03359.259796-.05742.521617-.07656.785677a14 14 0 0 0 -.052837 1.022624c0 .438224.02623.869972.06563 1.297917a14 14 0 0 0  .03099.269792c.04194.375662.09846.745899.169531 1.111979a14 14 0 0 0  .03099.160417c.1867.904877.460873 1.776738.813021 2.608593a14 14 0 0 0 0 .0036c.55102 1.300764 1.29323 2.499376 2.191146 3.563802 1.393691 1.652137 3.154906 2.983583 5.167969 3.85.0453.0195.09208.02459.138541.02552a14 14 0 0 0  .935156.366406l17.009631-9.637761c.229592-.06735.433268-.180342.610678-.346354l.504947-.286197a14 14 0 0 0  .249739-1.620573c.02484-.195648.03283-.434383.04557-.659897a14 14 0 0 0  .036461-.707244c0-7.731986-6.268014-14-14-14z" fill="#ffd739"/><circle cx="24" cy="24" fill="#ff8c00" r="8"/><path d="m41.923828 23.5c-.179599.63497-.696551 1.24362-1.564453 1.730469l-30.4160156 17.234375c-1.2995566.750297-2.4383932.683343-3.1679688-.021485-.478784-.477462-.7753906-1.251554-.7753906-2.251953v1c0 1.000399.2966066 1.774491.7753906 2.251953.7295756.704828 1.8684122.771782 3.1679688.02148l30.4160156-17.23437c1.320283-.740611 1.837011-1.761649 1.564453-2.730469z" opacity=".3"/><path d="m12 5.3710938c-1.775398 0-3.3909865.6665948-4.625 1.7558593a7 7 0 0 0 -.00391.00195c-.1691448.1494762-.3303868.3057293-.4843712.4707063a7 7 0 0 0 -.0371094.0410156c-.1406105.1530215-.2736977.3114555-.4003906.4765625a7 7 0 0 0 -.0585938.0800781c-.1171795.157248-.2281398.3192957-.3320312.4863282a7 7 0 0 0 -.060547.099609c-.0978529.1633058-.1888754.3303614-.2734374.5019534a7 7 0 0 0 -.0585938.1191407c-.0783695.1670325-.1496022.3377972-.2148437.5117187a7 7 0 0 0 -.050781.1367184c-.058832.167437-.1100635.338733-.15625.511719a7 7 0 0 0 -.046875.177735c-.036595.153393-.067437.309669-.09375.466796a7 7 0 0 0 -.039063.257813c-.016795.129898-.027539.260548-.037109.392578a7 7 0 0 0 -.0273439.511719c0 .08647.00999.170319.013672.255859a7 7 0 0 1  .013672-.267578c.00957-.13203.020314-.26268.037109-.392578a7 7 0 0 1  .039063-.257813c.026313-.157127.057155-.313403.09375-.466796a7 7 0 0 1  .046875-.177735c.046187-.172986.097418-.344282.15625-.511719a7 7 0 0 1  .050781-.136718c.0652414-.173922.1364741-.344687.2148436-.5117191a7 7 0 0 1  .0585938-.1191407c.084562-.171592.1755845-.3386476.2734375-.5019531a7 7 0 0 1  .060547-.099609c.1038913-.1670328.2148516-.3290805.3320311-.4863285a7 7 0 0 1  .058594-.080078c.1266927-.1651071.2597799-.3235411.4003904-.4765626a7 7 0 0 1  .037109-.041016c.1539848-.1649766.3152268-.3212297.4843754-.4707028a7 7 0 0 1  .0039062-.0019531c1.2340135-1.0892645 2.849602-1.7558593 4.625-1.7558593 3.783453 0 6.856434 3.0040661 6.986328 6.7558592a7 7 0 0 0  .013672-.255859c0-3.8659932-3.134007-7.0000002-7-7.0000002z" fill="#fff" opacity=".2" transform="scale(2)"/></g></svg>

<?xml version="1.0" encoding="UTF-8" standalone="no"?>
<svg
   xmlns:dc="http://purl.org/dc/elements/1.1/"
   xmlns:cc="http://creativecommons.org/ns#"
   xmlns:rdf="http://www.w3.org/1999/02/22-rdf-syntax-ns#"
   xmlns:svg="http://www.w3.org/2000/svg"
   xmlns="http://www.w3.org/2000/svg"
   xmlns:sodipodi="http://sodipodi.sourceforge.net/DTD/sodipodi-0.dtd"
   xmlns:inkscape="http://www.inkscape.org/namespaces/inkscape"
   x="0px"
   y="0px"
   viewBox="0 0 44 44"
   hola_ext_inject="disabled"
   id="svg2"
   version="1.1"
   inkscape:version="0.91 r13725"
   sodipodi:docname="google-play-music-desktop-player.svg"
   width="22"
   height="22">
  <metadata
     id="metadata54">
    <rdf:RDF>
      <cc:Work
         rdf:about="">
        <dc:format>image/svg+xml</dc:format>
        <dc:type
           rdf:resource="http://purl.org/dc/dcmitype/StillImage" />
        <dc:title></dc:title>
      </cc:Work>
    </rdf:RDF>
  </metadata>
  <defs
     id="defs52" />
  <sodipodi:namedview
     pagecolor="#ffffff"
     bordercolor="#666666"
     borderopacity="1"
     objecttolerance="10"
     gridtolerance="10"
     guidetolerance="10"
     inkscape:pageopacity="0"
     inkscape:pageshadow="2"
     inkscape:window-width="1600"
     inkscape:window-height="849"
     id="namedview50"
     showgrid="false"
     inkscape:zoom="5.33"
     inkscape:cx="-38.022514"
     inkscape:cy="15.814158"
     inkscape:window-x="0"
     inkscape:window-y="0"
     inkscape:window-maximized="1"
     inkscape:current-layer="svg2" />
  <linearGradient
     id="a"
     x1="98.985703"
     x2="98.985703"
     y1="183.6666"
     y2="7.9380002"
     gradientUnits="userSpaceOnUse"
     gradientTransform="matrix(0.2279924,0,0,0.22736347,1.4173528,2.1759583)">
    <stop
       offset="0"
       stop-color="#FFF"
       stop-opacity="0"
       id="stop11" />
    <stop
       offset="1"
       stop-color="#FFF"
       stop-opacity="0.1"
       id="stop13" />
  </linearGradient>
  <linearGradient
     id="b"
     x1="104.3169"
     x2="119.2413"
     y1="110.4006"
     y2="136.2504"
     gradientUnits="userSpaceOnUse"
     gradientTransform="matrix(0.22727311,0,0,0.22727311,1.4545378,2.1925796)">
    <stop
       offset="0"
       stop-color="#991700"
       stop-opacity="0"
       id="stop24" />
    <stop
       offset="1"
       stop-color="#991700"
       stop-opacity="0.1"
       id="stop26" />
  </linearGradient>
  <g
     id="g4144"
     transform="translate(-2.0000001,-1.9998638)">
    <path
       id="path8"
       d="M 40.358455,21.751952 9.9442685,4.5178019 C 8.6447119,3.7902389 7.4819506,3.8584479 6.7751742,4.5405383 l 0,0 C 6.2735908,5.0180016 6,5.7910373 6,6.7914366 L 6,41.191529 c 0,1.000399 0.2963902,1.773436 0.7751742,2.250898 l 0,0 c 0.7295756,0.704828 1.8695377,0.773037 3.1690943,0.02274 L 40.358455,26.231013 c 2.188727,-1.227763 2.188727,-3.228562 0,-4.479061 z"
       inkscape:connector-curvature="0"
       style="fill:#eb4d27;fill-opacity:1" />
    <path
       id="path4226"
       d="M 8.1367188,4 C 7.5952368,4.0113682 7.1287788,4.1999704 6.7753906,4.5410156 6.2738072,5.0184789 6,5.7906163 6,6.7910156 l 0,1 C 6,6.7906163 6.2738072,6.0184789 6.7753906,5.5410156 7.482167,4.8589252 8.6438028,4.7900151 9.9433594,5.5175781 L 40.359375,22.751953 C 41.227819,23.248127 41.744547,23.862738 41.923828,24.5 42.197152,23.533665 41.6802,22.506588 40.359375,21.751953 L 9.9433594,4.5175781 C 9.2935811,4.1537966 8.6782007,3.9886318 8.1367188,4 Z"
       style="opacity:0.2;fill:#ffffff;fill-opacity:1"
       inkscape:connector-curvature="0" />
    <path
       inkscape:connector-curvature="0"
       id="path4216"
       d="m 24,10.741974 c -3.550797,0 -6.783275,1.332409 -9.251302,3.510938 a 14,14 0 0 0 -0.0055,0.0055 c -0.338297,0.298946 -0.661822,0.612495 -0.969791,0.942449 a 14,14 0 0 0 -0.07292,0.08203 c -0.281221,0.306043 -0.548697,0.623172 -0.802083,0.953386 a 14,14 0 0 0 -0.11849,0.158594 c -0.234359,0.314496 -0.455759,0.637549 -0.663542,0.971614 a 14,14 0 0 0 -0.120312,0.198698 c -0.195706,0.326611 -0.377752,0.661244 -0.546876,1.004428 a 14,14 0 0 0 -0.116666,0.240624 c -0.156739,0.334065 -0.299725,0.674813 -0.430208,1.022656 a 14,14 0 0 0 -0.100261,0.273438 c -0.117664,0.334873 -0.221168,0.674861 -0.313541,1.020833 a 14,14 0 0 0 -0.09297,0.359115 c -0.07319,0.306787 -0.135136,0.617257 -0.187761,0.931511 a 14,14 0 0 0 -0.07838,0.515885 c -0.03359,0.259796 -0.05742,0.521617 -0.07656,0.785677 A 14,14 0 0 0 10,24.741974 c 0,0.438224 0.02623,0.869972 0.06563,1.297917 a 14,14 0 0 0 0.03099,0.269792 c 0.04194,0.375662 0.09846,0.745899 0.169531,1.111979 a 14,14 0 0 0 0.03099,0.160417 c 0.1867,0.904877 0.460873,1.776738 0.813021,2.608593 a 14,14 0 0 0 0,0.0036 c 0.55102,1.300764 1.29323,2.499376 2.191146,3.563802 1.393691,1.652137 3.154906,2.983583 5.167969,3.85 0.0453,0.0195 0.09208,0.02459 0.138541,0.02552 A 14,14 0 0 0 19.542974,38 l 17.009631,-9.637761 c 0.229592,-0.06735 0.433268,-0.180342 0.610678,-0.346354 l 0.504947,-0.286197 a 14,14 0 0 0 0.249739,-1.620573 c 0.02484,-0.195648 0.03283,-0.434383 0.04557,-0.659897 A 14,14 0 0 0 38,24.741974 c 0,-7.731986 -6.268014,-14 -14,-14 z"
       style="opacity:1;fill:#ffd739;fill-opacity:1;stroke:none;stroke-width:8;stroke-linecap:round;stroke-linejoin:round;stroke-miterlimit:4;stroke-dasharray:none;stroke-opacity:1" />
    <circle
       r="8"
       id="circle21"
       cy="24"
       cx="24"
       style="fill:#ff8c00" />
    <path
       id="path4231"
       d="m 41.923828,23.5 c -0.179599,0.63497 -0.696551,1.24362 -1.564453,1.730469 L 9.9433594,42.464844 C 8.6438028,43.215141 7.5049662,43.148187 6.7753906,42.443359 6.2966066,41.965897 6,41.191805 6,40.191406 l 0,1 c 0,1.000399 0.2966066,1.774491 0.7753906,2.251953 0.7295756,0.704828 1.8684122,0.771782 3.1679688,0.02148 L 40.359375,26.230469 C 41.679658,25.489858 42.196386,24.46882 41.923828,23.5 Z"
       style="opacity:0.3;fill:#000000;fill-opacity:1"
       inkscape:connector-curvature="0" />
    <path
       id="path4144"
       transform="scale(2,2)"
       d="m 12,5.3710938 c -1.775398,0 -3.3909865,0.6665948 -4.625,1.7558593 a 7,7 0 0 0 -0.00391,0.00195 C 7.2019452,7.2783793 7.0407032,7.4346324 6.8867188,7.5996094 A 7,7 0 0 0 6.8496094,7.640625 C 6.7089989,7.7936465 6.5759117,7.9520805 6.4492188,8.1171875 A 7,7 0 0 0 6.390625,8.1972656 C 6.2734455,8.3545136 6.1624852,8.5165613 6.0585938,8.6835938 a 7,7 0 0 0 -0.060547,0.099609 C 5.9001939,8.9465086 5.8091714,9.1135642 5.7246094,9.2851562 A 7,7 0 0 0 5.6660156,9.4042969 C 5.5876461,9.5713294 5.5164134,9.7420941 5.4511719,9.9160156 a 7,7 0 0 0 -0.050781,0.1367184 c -0.058832,0.167437 -0.1100635,0.338733 -0.15625,0.511719 a 7,7 0 0 0 -0.046875,0.177735 c -0.036595,0.153393 -0.067437,0.309669 -0.09375,0.466796 a 7,7 0 0 0 -0.039063,0.257813 c -0.016795,0.129898 -0.027539,0.260548 -0.037109,0.392578 A 7,7 0 0 0 5,12.371094 c 0,0.08647 0.00999,0.170319 0.013672,0.255859 a 7,7 0 0 1 0.013672,-0.267578 c 0.00957,-0.13203 0.020314,-0.26268 0.037109,-0.392578 a 7,7 0 0 1 0.039063,-0.257813 c 0.026313,-0.157127 0.057155,-0.313403 0.09375,-0.466796 a 7,7 0 0 1 0.046875,-0.177735 c 0.046187,-0.172986 0.097418,-0.344282 0.15625,-0.511719 A 7,7 0 0 1 5.451172,10.416016 C 5.5164134,10.242094 5.5876461,10.071329 5.6660156,9.9042969 A 7,7 0 0 1 5.7246094,9.7851562 C 5.8091714,9.6135642 5.9001939,9.4465086 5.9980469,9.2832031 a 7,7 0 0 1 0.060547,-0.099609 C 6.1624852,9.0165613 6.2734455,8.8545136 6.390625,8.6972656 A 7,7 0 0 1 6.449219,8.6171876 C 6.5759117,8.4520805 6.7089989,8.2936465 6.8496094,8.140625 A 7,7 0 0 1 6.8867184,8.099609 C 7.0407032,7.9346324 7.2019452,7.7783793 7.3710938,7.6289062 A 7,7 0 0 1 7.375,7.6269531 C 8.6090135,6.5376886 10.224602,5.8710938 12,5.8710938 c 3.783453,0 6.856434,3.0040661 6.986328,6.7558592 A 7,7 0 0 0 19,12.371094 C 19,8.5051008 15.865993,5.3710938 12,5.3710938 Z"
       style="opacity:0.2;fill:#ffffff;fill-opacity:1;stroke:none;stroke-width:8;stroke-linecap:round;stroke-linejoin:round;stroke-miterlimit:4;stroke-dasharray:none;stroke-opacity:1"
       inkscape:connector-curvature="0" />
  </g>
</svg>
